

d1 $ sound "birds*2" # n (irand 8) #gain 0.5

d3 $ n "<g d c e>" # sound "tink"

xfade 2 $ chunk 4 (|- note 5) $ jux rev $
    arp "<pinkyup down thumbup up>" $ n "<c'maj'4 e4'min'8 f4'maj'8>"
    # sound "supermandolin"
    # sustain 20 # room 1.3 # sz 0.9

xfade 1 silence

hush
