d1
$ jux (rev)
$ off 0.125 (|+| 12)
$ note "[a(3,8) d(3,8) g(3,8,2) c(3,8,2)]/8" #s "hardkick"
# pan rand

d2 $ sound "popkick*4" # n (irand 8)

d3 $ sound "[gabba*1, hh*2 , ~cp]" #gain 1.2

xfade 3 silence

hush
