d1
$jux (rev)
$ off 0.25 (# vowel "<a o i>")
$ off 0.125 (|+| 12)
$ note "[a(2,7) d(2,7) g(2,7,3) c(2,7,3)]/2" #s "sine"
# pan rand

d2 $ sound "koy*8"

d4 $ n (scale "techno" "1 2 3 4 6 9") # sound "subroc3d"

d3 $ s "mp3:2"

xfade 2 silence

hush
